resources/svg/facebook-box-line.svg

<svg fill="currentColor" viewBox="0 0 24 24" xmlns="http://www.w3.org/2000/svg"><path d="M14 19H19V5H5V19H12V14H10V12H12V10.3458C12 9.00855 12.1392 8.52362 12.4007 8.03473C12.6622 7.54584 13.0458 7.16216 13.5347 6.9007C13.9174 6.69604 14.3922 6.57252 15.2217 6.51954C15.551 6.49851 15.9771 6.52533 16.5 6.6V8.5H16C15.0827 8.5 14.7042 8.54332 14.4779 8.66433C14.3376 8.73939 14.2394 8.83758 14.1643 8.97793C14.0433 9.20418 14 9.42853 14 10.3458V12H16.5L16 14H14V19ZM4 3H20C20.5523 3 21 3.44772 21 4V20C21 20.5523 20.5523 21 20 21H4C3.44772 21 3 20.5523 3 20V4C3 3.44772 3.44772 3 4 3Z"/></svg>

<svg xmlns="http://www.w3.org/2000/svg" viewBox="0 0 24 24" fill="currentColor">
    <g>
        <path fill="none" d="M0 0h24v24H0z"/>
        <path d="M14 19h5V5H5v14h7v-5h-2v-2h2v-1.654c0-1.337.14-1.822.4-2.311A2.726 2.726 0 0 1 13.536 6.9c.382-.205.857-.328 1.687-.381.329-.021.755.005 1.278.08v1.9H16c-.917 0-1.296.043-1.522.164a.727.727 0 0 0-.314.314c-.12.226-.164.45-.164 1.368V12h2.5l-.5 2h-2v5zM4 3h16a1 1 0 0 1 1 1v16a1 1 0 0 1-1 1H4a1 1 0 0 1-1-1V4a1 1 0 0 1 1-1z"/>
    </g>
</svg>
